!!!!SEGMENT: pl-sa--78-a-ii-18--007_kraus-lambert--requiem-ex-dis-agnus-dei.krn
!!!cenid: 17xx:1688
!!!COM: Kraus, Lambert
!!!COM-rismID:
!!!CDT: 1728-1790
!!!CNT:
!!!OPR: Requiem ex Dis
!!!OTL: Agnus Dei
!!!OMV: 008
!!!PDT:
!!!AGN: Sacred; Requiem
!!!SMS-siglum: PL-SA
!!!SMS-shelfmark: 78/A II 18
!!!SMS-shelfwork: 001-008 M
!!!SMS-variant:
!!!SMS-altvar:
!!!NIFC-rismSourceID: 1001070176
!!!NIFC-islandoraID:
!!!URL-pdf-islandora:
!!!URL-scan: https://bc.bdsandomierz.pl/dlibra/publication/1355/edition/1323/content @EN{Scan on Cyfrowa Biblioteka Diecezjalna w Sandomierzu} @PL{Skany w portalu Cyfrowa Biblioteka Diecezjalna w Sandomierzu}
!!!ONB-nifc: UWAGA: części Requiem: 1. Requiem, 2. Kyrie, 3. Dies irae, 4. Responde mihi, 5. Sanctus, 6. Benedictus, 7. Agnus Dei, 8. Lux aeterna
!!!AIN: 1 alto 1 bass 2 cor 1 organ 1 soprn 1 tenor 2 violn
!!!key: E-
**kern	**kern	**kern	**kern	**text	**dynam	**kern	**text	**kern	**text	**kern	**text	**kern	**kern
*part9	*part8	*part7	*part6	*part6	*part6	*part5	*part5	*part4	*part4	*part3	*part3	*part2	*part1
*staff9	*staff8	*staff7	*staff6	*staff6	*	*staff5	*staff5	*staff4	*staff4	*staff3	*staff3	*staff2	*staff1
*I"Organo	*I"Violino 2do	*I"Violino 1mo	*I"Baſso	*	*	*I"Tenore	*	*I"Alto	*	*I"Canto	*	*I"Cornu 2do ex Dis	*I"Cornu 1mo ex Dis
*I'org	*I'vl II	*I'vl I	*I'B	*	*	*I'T	*	*I'A	*	*I'S	*	*I'cor II	*I'cor I
*ICklav	*ICstr	*ICstr	*ICvox	*	*	*ICvox	*	*ICvox	*	*ICvox	*	*ICbras	*ICbras
*Iorgan	*Ivioln	*Ivioln	*Ibass	*	*	*Itenor	*	*Ialto	*	*Isoprn	*	*Icor	*Icor
*clefF4	*clefG2	*clefG2	*clefF4	*	*	*clefC4	*	*clefC3	*	*clefC1	*	*clefG2	*clefG2
*	*	*	*	*	*	*	*	*	*	*	*	*ITrd5c9	*ITrd5c9
*k[a-e-b-]	*k[e-b-a-]	*k[e-b-a-]	*k[b-e-a-]	*	*	*k[a-b-e-]	*	*k[a-b-e-]	*	*k[a-b-e-]	*	*k[b-e-a-]	*k[b-e-a-]
*E-:	*E-:	*E-:	*E-:	*	*	*E-:	*	*E-:	*	*E-:	*	*E-:	*E-:
*E-	*E-	*E-	*E-	*	*	*E-	*	*E-	*	*E-	*	*E-	*E-
*M4/4	*M4/4	*M4/4	*M4/4	*	*	*M4/4	*	*M4/4	*	*M4/4	*	*M4/4	*M4/4
*met(c)	*met(c)	*met(c)	*met(c)	*	*	*met(c)	*	*met(c)	*	*met(c)	*	*met(c)	*met(c)
=1	=1	=1	=1	=1	=1	=1	=1	=1	=1	=1	=1	=1	=1
!	!LO:TX:a:B:t=adagio	!	!	!	!	!	!	!	!	!	!	!	!
!LO:TX:t=P:problem=kolejność znaków A- E- BB-	!LO:TX:b:B:t=Agnus	!LO:TX:t=P:problem=kolejnośćć znaków ee- b- a-	!LO:TX:t=P:problem=kolejność znaków BB- E- A-	!	!	!	!	!	!	!	!	!	!
!LO:TX:b:B:t=Agnus	!LO:TX:t=P:problem=kolejnośćć znaków ee- b- a-	!LO:TX:b:B:t=Agnus	!LO:TX:b:B:t=Agnus	!	!	!LO:TX:t=P:problem=kolejność znaków A- B- e-	!	!LO:TX:t=P:problem=kolejność znaków A- B- e-	!	!LO:TX:t=P:problem=kolejność znaków a- b- ee-	!	!LO:TX:b:B:t=Agnus	!LO:TX:b:B:t=Agnus
8E-\L	16r	16r	1r	.	.	1r	.	1r	.	1r	.	1r	1r
.	32r	32r	.	.	.	.	.	.	.	.	.	.	.
.	32b-/KLL	32b-/KLL	.	.	.	.	.	.	.	.	.	.	.
8r	16d/	16d/	.	.	.	.	.	.	.	.	.	.	.
.	16e-/JJ	16e-/JJ	.	.	.	.	.	.	.	.	.	.	.
8E-\J	16r	16r	.	.	.	.	.	.	.	.	.	.	.
.	32r	32r	.	.	.	.	.	.	.	.	.	.	.
.	32b-/KLL	32b-/KLL	.	.	.	.	.	.	.	.	.	.	.
8r	16d/	16d/	.	.	.	.	.	.	.	.	.	.	.
.	16e-/JJ	16e-/JJ	.	.	.	.	.	.	.	.	.	.	.
8E-\L	16r	16r	.	.	.	.	.	.	.	.	.	.	.
.	32r	32r	.	.	.	.	.	.	.	.	.	.	.
.	32b-/KLL	32b-/KLL	.	.	.	.	.	.	.	.	.	.	.
8r	16d/	16d/	.	.	.	.	.	.	.	.	.	.	.
.	16e-/JJ	16e-/JJ	.	.	.	.	.	.	.	.	.	.	.
8E-\J	16r	16r	.	.	.	.	.	.	.	.	.	.	.
.	32r	32r	.	.	.	.	.	.	.	.	.	.	.
.	32b-/KLL	32b-/KLL	.	.	.	.	.	.	.	.	.	.	.
8r	16d/	16d/	.	.	.	.	.	.	.	.	.	.	.
.	16e-/JJ	16e-/JJ	.	.	.	.	.	.	.	.	.	.	.
=2	=2	=2	=2	=2	=2	=2	=2	=2	=2	=2	=2	=2	=2
!	!	!LO:N:vis=8	!	!	!	!	!	!	!	!	!	!	!
8A-\L	16r	16r	1r	.	.	1r	.	1r	.	1r	.	1r	1r
.	32r	32r	.	.	.	.	.	.	.	.	.	.	.
.	32cc/KLL	32cc/KLL	.	.	.	.	.	.	.	.	.	.	.
8r	16en/	16en/	.	.	.	.	.	.	.	.	.	.	.
.	16f/JJ	16f/JJ	.	.	.	.	.	.	.	.	.	.	.
!	!LO:LB:g=original	!	!	!	!	!	!	!	!	!	!	!	!
8A-\J	16r	16r	.	.	.	.	.	.	.	.	.	.	.
.	32r	32r	.	.	.	.	.	.	.	.	.	.	.
!	!	!LO:LB:g=original	!	!	!	!	!	!	!	!	!	!	!
.	32cc/KLL	32cc/KLL	.	.	.	.	.	.	.	.	.	.	.
8r	16e/	16e/	.	.	.	.	.	.	.	.	.	.	.
.	16f/JJ	16f/JJ	.	.	.	.	.	.	.	.	.	.	.
8A-\L	16r	16r	.	.	.	.	.	.	.	.	.	.	.
.	32r	32r	.	.	.	.	.	.	.	.	.	.	.
.	32cc/KLL	32cc/KLL	.	.	.	.	.	.	.	.	.	.	.
8r	16e/	16e/	.	.	.	.	.	.	.	.	.	.	.
.	16f/JJ	16f/JJ	.	.	.	.	.	.	.	.	.	.	.
8A-\J	16r	16r	.	.	.	.	.	.	.	.	.	.	.
.	32r	32r	.	.	.	.	.	.	.	.	.	.	.
.	32cc/KLL	32cc/KLL	.	.	.	.	.	.	.	.	.	.	.
8r	16e/	16e/	.	.	.	.	.	.	.	.	.	.	.
.	16f/JJ	16f/JJ	.	.	.	.	.	.	.	.	.	.	.
=3	=3	=3	=3	=3	=3	=3	=3	=3	=3	=3	=3	=3	=3
8An\L	16r	16r	1r	.	.	1r	.	1r	.	1r	.	1r	1r
.	32r	32r	.	.	.	.	.	.	.	.	.	.	.
.	32cc/KLL	32cc/KLL	.	.	.	.	.	.	.	.	.	.	.
8r	16en/	16en/	.	.	.	.	.	.	.	.	.	.	.
.	16c/JJ	16c/JJ	.	.	.	.	.	.	.	.	.	.	.
8A\J	16r	16r	.	.	.	.	.	.	.	.	.	.	.
.	32r	32r	.	.	.	.	.	.	.	.	.	.	.
.	32cc/KLL	32cc/KLL	.	.	.	.	.	.	.	.	.	.	.
8r	16e/	16e/	.	.	.	.	.	.	.	.	.	.	.
.	16c/JJ	16c/JJ	.	.	.	.	.	.	.	.	.	.	.
!LO:LB:g=original	!	!	!	!	!	!	!	!	!	!	!	!	!
8A\L	16r	16r	.	.	.	.	.	.	.	.	.	.	.
.	32r	32r	.	.	.	.	.	.	.	.	.	.	.
.	32cc/KLL	32cc/KLL	.	.	.	.	.	.	.	.	.	.	.
8r	16e/	16e/	.	.	.	.	.	.	.	.	.	.	.
.	16c/JJ	16c/JJ	.	.	.	.	.	.	.	.	.	.	.
8A\J	16r	16r	.	.	.	.	.	.	.	.	.	.	.
.	32r	32r	.	.	.	.	.	.	.	.	.	.	.
.	32cc/KLL	32cc/KLL	.	.	.	.	.	.	.	.	.	.	.
8r	16e/	16f/	.	.	.	.	.	.	.	.	.	.	.
.	16e/JJ	16e/JJ	.	.	.	.	.	.	.	.	.	.	.
=4	=4	=4	=4	=4	=4	=4	=4	=4	=4	=4	=4	=4	=4
!LO:TX:t=P:problem=mixed beam	!	!	!	!	!LO:DY:a	!	!	!	!	!	!	!	!
!	!	!	!	!	!LO:DY:t=pi	!	!	!	!	!	!	!	!
8B-\L	8d/L	8d/L	2r	.	p	2r	.	2r	.	2r	.	1r	1r
8BB-\J	8d/J	8d/J	.	.	.	.	.	.	.	.	.	.	.
4BB-/	4d/	4d/	.	.	.	.	.	.	.	.	.	.	.
!	!	!LO:LB:g=original	!	!	!	!	!	!	!	!	!	!	!
8E-\L	16r	16r	8B-\	A-	.	8g\	Aa-	8b-\	A-	8gg\	a-	.	.
.	32r	32r	.	.	.	.	.	.	.	.	.	.	.
!	!LO:LB:g=original	!	!	!	!	!	!	!	!	!	!	!	!
.	32g/KLL	32b-/KLL	.	.	.	.	.	.	.	.	.	.	.
8r	16g/	16b-/	8B-\	-gnus	.	8g\	-gnus	8b-\	-gnus	8gg\	-gnus	.	.
.	16e-/JJ	16e-/JJ	.	.	.	.	.	.	.	.	.	.	.
8E-\J	16r	16r	8B-\	De-	.	8g\	De-	8b-\	De-	8gg\	De-	.	.
.	32r	32r	.	.	.	.	.	.	.	.	.	.	.
.	32g/KLL	32b-/KLL	.	.	.	.	.	.	.	.	.	.	.
8r	16g/	16b-/	16B-\	-i	.	16g\	-i	16b-\	-i	16gg\	-i	.	.
.	16e-/JJ	16e-/JJ	16B-\	qui	.	16g\	qui	16b-\	qui	16gg\	qui	.	.
=5	=5	=5	=5	=5	=5	=5	=5	=5	=5	=5	=5	=5	=5
8BB-/L	16r	16r	8A-\	tol-	.	8f\	tol-	8a-\	tol-	8ff\	tol-	1r	1r
.	32r	32r	.	.	.	.	.	.	.	.	.	.	.
.	32f/KLL	32a-/KLL	.	.	.	.	.	.	.	.	.	.	.
8r	16B-/	16d/	8A-\	-lis	.	8f\	-lis	8a-\	-lis	8ff\	-lis	.	.
.	16d/JJ	16f/JJ	.	.	.	.	.	.	.	.	.	.	.
8BB-/J	16r	16r	8r	.	.	8r	.	8r	.	8r	.	.	.
.	32r	32r	.	.	.	.	.	.	.	.	.	.	.
.	32f/KLL	32a-/KLL	.	.	.	.	.	.	.	.	.	.	.
8r	16B-/	16d/	16r	.	.	16r	.	16r	.	16r	.	.	.
.	16d/JJ	16f/JJ	16A-\	pec-	.	16f\	pec-	16a-\	pec-	16ff\	pec-	.	.
!	!	!	!	!	!	!LO:N:vis=4	!	!	!	!	!	!	!
8BB-/L	16r	16r	4.A-\	-ca-	.	4.f\	-ca-	4.a-\	-ca-	4ff\	-ca-	.	.
.	32r	32r	.	.	.	.	.	.	.	.	.	.	.
.	32f/KLL	32a-/KLL	.	.	.	.	.	.	.	.	.	.	.
8r	16B-/	16d/	.	.	.	.	.	.	.	.	.	.	.
.	16d/JJ	16f/JJ	.	.	.	.	.	.	.	.	.	.	.
8BB-/J	16r	16r	.	.	.	.	.	.	.	4ff\	-ta	.	.
.	32r	32r	.	.	.	.	.	.	.	.	.	.	.
.	32f/KLL	32a-/KLL	.	.	.	.	.	.	.	.	.	.	.
!	!	!	!	!	!	!LO:LB:g=original	!	!	!	!	!	!	!
!	!	!	!	!	!	!LO:N:vis=4	!	!	!	!	!	!	!
8r	16B-/	16d/	8A-\	-ta	.	8f\	-ta	8a-\	-ta	.	.	.	.
.	16d/JJ	16f/JJ	.	.	.	.	.	.	.	.	.	.	.
!	!	!	!LO:LB:g=original	!	!	!	!	!LO:LB:g=original	!	!	!	!	!
=6	=6	=6	=6	=6	=6	=6	=6	=6	=6	=6	=6	=6	=6
8E-\L	16r	16r	4G\	mun-	.	4e-\	mun-	4g\	mun-	4ee-\	mun-	2r	2r
.	32r	32r	.	.	.	.	.	.	.	.	.	.	.
.	32g/KLL	32g/KLL	.	.	.	.	.	.	.	.	.	.	.
8r	16B-/	16B-/	.	.	.	.	.	.	.	.	.	.	.
.	16e-/JJ	16d/JJ	.	.	.	.	.	.	.	.	.	.	.
!	!	!LO:LB:g=original	!	!	!	!	!	!	!	!	!	!	!
8E-\J	16r	16r	4G\	-di	.	4e-\	-di	4g\	-di	4ee-\	-di	.	.
.	32r	32r	.	.	.	.	.	.	.	.	.	.	.
.	32g/KLL	32g/KLL	.	.	.	.	.	.	.	.	.	.	.
8r	16B-/	16B-/	.	.	.	.	.	.	.	.	.	.	.
.	16e-/JJ	16d/JJ	.	.	.	.	.	.	.	.	.	.	.
!	!LO:LB:g=original	!	!	!	!	!	!	!	!	!LO:LB:g=original	!	!	!
8E-\L	16r	16r	4E-\	Do-	.	4E-/	Do-	4e-\	mi-	4e-/	Do-	8E-/L	8E-/L
.	32r	32r	.	.	.	.	.	.	.	.	.	.	.
.	32g/KLL	32g/KLL	.	.	.	.	.	.	.	.	.	.	.
8r	16B-/	16d/	.	.	.	.	.	.	.	.	.	8r	8r
.	16e-/JJ	16e-/JJ	.	.	.	.	.	.	.	.	.	.	.
8E-\J	16r	16r	4E-\	-na	.	4E-/	-na	4e-\	-se	4e-/	-na	8E-/J	8E-/J
.	32r	32r	.	.	.	.	.	.	.	.	.	.	.
.	32g/KLL	32g/KLL	.	.	.	.	.	.	.	.	.	.	.
8r	16B-/	16d/	.	.	.	.	.	.	.	.	.	8r	8r
.	16e-/JJ	16e-/JJ	.	.	.	.	.	.	.	.	.	.	.
=7	=7	=7	=7	=7	=7	=7	=7	=7	=7	=7	=7	=7	=7
8BB-/L	16r	16r	4F\	E-	.	4F/	E-	4f\	E-	4f/	E-	8BB-/L	8BB-/L
.	32r	32r	.	.	.	.	.	.	.	.	.	.	.
.	32f/KLL	32f/KLL	.	.	.	.	.	.	.	.	.	.	.
8r	16An/	16An/	.	.	.	.	.	.	.	.	.	8r	8r
.	16B-/JJ	16B-/JJ	.	.	.	.	.	.	.	.	.	.	.
8BB-/J	16r	16r	4F\	-is	.	4F/	-is	4f\	-is	4f/	-is	8BB-/J	8BB-/J
.	32r	32r	.	.	.	.	.	.	.	.	.	.	.
.	32f/KLL	32f/KLL	.	.	.	.	.	.	.	.	.	.	.
8r	16A/	16A/	.	.	.	.	.	.	.	.	.	8r	8r
.	16B-/JJ	16B-/JJ	.	.	.	.	.	.	.	.	.	.	.
!LO:LB:g=original	!	!	!	!	!	!	!	!	!	!	!	!	!
8BB-/L	16r	16r	4.F\	Re-	.	4.F/	Re-	4.f\	Re-	4.f/	Re-	8BB-/L	8BB-/L
.	32r	32r	.	.	.	.	.	.	.	.	.	.	.
.	32f/KLL	32f/KLL	.	.	.	.	.	.	.	.	.	.	.
8r	16A/	16A/	.	.	.	.	.	.	.	.	.	8r	8r
.	16B-/JJ	16B-/JJ	.	.	.	.	.	.	.	.	.	.	.
8BB-/J	16r	16r	.	.	.	.	.	.	.	.	.	8BB-/J	8BB-/J
.	32r	32r	.	.	.	.	.	.	.	.	.	.	.
.	32f/KLL	32f/KLL	.	.	.	.	.	.	.	.	.	.	.
8r	16A/	16A/	8F\	-qui-	.	8F/	-qui-	8f\	-qui-	8f/	-qui-	8r	8r
.	16B-/JJ	16B-/JJ	.	.	.	.	.	.	.	.	.	.	.
!	!	!LO:LB:g=original	!	!	!	!	!	!	!	!	!	!	!
=8	=8	=8	=8	=8	=8	=8	=8	=8	=8	=8	=8	=8	=8
8E-\L	16r	16r	4G\	-em	.	4G/	-em	4f\	-em	4g/	-em	8E-/L	8E-/L
.	32r	32r	.	.	.	.	.	.	.	.	.	.	.
.	32g/KLL	32g/KLL	.	.	.	.	.	.	.	.	.	.	.
8r	16d/	16d/	.	.	.	.	.	.	.	.	.	8r	8r
.	16e-/JJ	16e-/JJ	.	.	.	.	.	.	.	.	.	.	.
8E-\J	16r	16r	4r	.	.	4r	.	4r	.	4r	.	8E-/J	8E-/J
.	32r	32r	.	.	.	.	.	.	.	.	.	.	.
.	32g/KLL	32g/KLL	.	.	.	.	.	.	.	.	.	.	.
8r	16d/	16d/	.	.	.	.	.	.	.	.	.	8r	8r
.	16e-/JJ	16e-/JJ	.	.	.	.	.	.	.	.	.	.	.
!	!LO:LB:g=original	!	!LO:N:vis=8	!	!	!	!	!	!	!	!	!	!
8E-\L	16r	16r	4G\	Do-	.	4G/	Do-	4g\	Do-	4g/	Do-	8E-/L	8E-/L
.	32r	32r	.	.	.	.	.	.	.	.	.	.	.
.	32g/KLL	32g/KLL	.	.	.	.	.	.	.	.	.	.	.
8r	16d/	16d/	.	.	.	.	.	.	.	.	.	8r	8r
.	16e-/JJ	16e-/JJ	.	.	.	.	.	.	.	.	.	.	.
8E-\J	16r	16r	4G\	-na	.	4G/	-na	4g\	-na	4g/	-na	8E-/J	8E-/J
.	32r	32r	.	.	.	.	.	.	.	.	.	.	.
.	32g/KLL	32b-/KLL	.	.	.	.	.	.	.	.	.	.	.
8r	16d/	16d/	.	.	.	.	.	.	.	.	.	8r	8r
.	16e-/JJ	16e-/JJ	.	.	.	.	.	.	.	.	.	.	.
!	!	!	!	!	!	!	!	!	!	!	!	!	!LO:LB:g=original
=9	=9	=9	=9	=9	=9	=9	=9	=9	=9	=9	=9	=9	=9
8BB-/L	16r	16r	4A-\	E-	.	4A-/	e-	4a-\	E-	4a-\	E-	8BB-/L	8BB-/L
.	32r	32r	.	.	.	.	.	.	.	.	.	.	.
.	32g/KLL	32g/KLL	.	.	.	.	.	.	.	.	.	.	.
8r	16d/	16d/	.	.	.	.	.	.	.	.	.	8r	8r
.	16e-/JJ	16e-/JJ	.	.	.	.	.	.	.	.	.	.	.
8E-/J	16r	16r	4G\	-is	.	4G/	-is	4g\	-is	4g\	-is	8E-/J	8E-/J
.	32r	32r	.	.	.	.	.	.	.	.	.	.	.
.	32g/KLL	32g/KLL	.	.	.	.	.	.	.	.	.	.	.
8r	16d/	16d/	.	.	.	.	.	.	.	.	.	8r	8r
.	16e-/JJ	16e-/JJ	.	.	.	.	.	.	.	.	.	.	.
!	!	!	!	!	!	!	!	!	!	!	!	!LO:LB:g=original	!
8E-\L	16r	16r	4.F\	Re-	.	4.F/	Re-	4.f\	Re-	4.f/	Re-	8BB-/L	8BB-/L
.	32r	32r	.	.	.	.	.	.	.	.	.	.	.
.	32f/KLL	32f/KLL	.	.	.	.	.	.	.	.	.	.	.
8r	16An/	16An/	.	.	.	.	.	.	.	.	.	8r	8r
.	16B-/JJ	16B-/JJ	.	.	.	.	.	.	.	.	.	.	.
8E-\J	16r	16r	.	.	.	.	.	.	.	.	.	8BB-/J	8BB-/J
.	32r	32r	.	.	.	.	.	.	.	.	.	.	.
!	!	!LO:LB:g=original	!	!	!	!	!	!	!	!	!	!	!
.	32f/KLL	32f/KLL	.	.	.	.	.	.	.	.	.	.	.
8r	16A/	16A/	8F\	-qui-	.	8F/	-qui-	8f\	-qui-	8f/	-qui-	8r	8r
.	16B-/JJ	16B-/JJ	.	.	.	.	.	.	.	.	.	.	.
=10	=10	=10	=10	=10	=10	=10	=10	=10	=10	=10	=10	=10	=10
8E-\L	16r	16r	4G\	-em	.	4G/	-em	4g\	-em	4g/	-em	4E-/	4E-/
.	32r	32r	.	.	.	.	.	.	.	.	.	.	.
.	32g/KLL	32g/KLL	.	.	.	.	.	.	.	.	.	.	.
8r	16d/	16d/	.	.	.	.	.	.	.	.	.	.	.
.	16e-/JJ	16e-/JJ	.	.	.	.	.	.	.	.	.	.	.
8E-\J	16r	16r	4r	.	.	4r	.	4r	.	4r	.	4r	4r
.	32r	32r	.	.	.	.	.	.	.	.	.	.	.
.	32g/KLL	32b-/KLL	.	.	.	.	.	.	.	.	.	.	.
8r	16d/	16d/	.	.	.	.	.	.	.	.	.	.	.
.	16e-/JJ	16e-/JJ	.	.	.	.	.	.	.	.	.	.	.
!	!LO:LB:g=original	!	!	!	!	!	!	!	!	!	!	!	!
8D-X\L	16r	16r	2r	.	.	2r	.	2r	.	2r	.	2r	2r
.	32r	32r	.	.	.	.	.	.	.	.	.	.	.
.	32b-/KLL	32b-/KLL	.	.	.	.	.	.	.	.	.	.	.
8r	16g/	16e-/	.	.	.	.	.	.	.	.	.	.	.
.	16G/JJ	16G/JJ	.	.	.	.	.	.	.	.	.	.	.
8D-\J	16r	16r	.	.	.	.	.	.	.	.	.	.	.
.	32r	32r	.	.	.	.	.	.	.	.	.	.	.
.	32b-/KLL	32b-/KLL	.	.	.	.	.	.	.	.	.	.	.
8r	16g/	16e-/	.	.	.	.	.	.	.	.	.	.	.
.	16G/JJ	16G/JJ	.	.	.	.	.	.	.	.	.	.	.
!	!	!	!LO:LB:g=original	!	!	!LO:LB:g=original	!	!LO:LB:g=original	!	!	!	!	!
=11	=11	=11	=11	=11	=11	=11	=11	=11	=11	=11	=11	=11	=11
!LO:SIC:s=D-	!	!	!	!	!	!	!	!	!	!	!	!	!
8D\L	16r	16r	1r	.	.	1r	.	1r	.	1r	.	1r	1r
.	32r	32r	.	.	.	.	.	.	.	.	.	.	.
.	32b-/KLL	32b-/KLL	.	.	.	.	.	.	.	.	.	.	.
8r	16g/	16e-/	.	.	.	.	.	.	.	.	.	.	.
.	16G/JJ	16G/JJ	.	.	.	.	.	.	.	.	.	.	.
!LO:SIC:s=D-	!	!	!	!	!	!	!	!	!	!	!	!	!
8D\J	16r	16r	.	.	.	.	.	.	.	.	.	.	.
.	32r	32r	.	.	.	.	.	.	.	.	.	.	.
.	32b-/KLL	32b-/KLL	.	.	.	.	.	.	.	.	.	.	.
!LO:LB:g=original	!	!	!	!	!	!	!	!	!	!	!	!	!
8r	16g/	16e-/	.	.	.	.	.	.	.	.	.	.	.
.	16G/JJ	16G/JJ	.	.	.	.	.	.	.	.	.	.	.
8C/L	16r	16r	.	.	.	.	.	.	.	.	.	.	.
.	32r	32r	.	.	.	.	.	.	.	.	.	.	.
!	!	!LO:LB:g=original	!	!	!	!	!	!	!	!	!	!	!
.	32a-/KLL	32a-/KLL	.	.	.	.	.	.	.	.	.	.	.
8r	16f/	16e-/	.	.	.	.	.	.	.	.	.	.	.
.	16c/JJ	16c/JJ	.	.	.	.	.	.	.	.	.	.	.
8C/J	16r	16r	.	.	.	.	.	.	.	.	.	.	.
.	32r	32r	.	.	.	.	.	.	.	.	.	.	.
.	32a-/KLL	32a-/KLL	.	.	.	.	.	.	.	.	.	.	.
8r	16f/	16e-/	.	.	.	.	.	.	.	.	.	.	.
.	16c/JJ	16c/JJ	.	.	.	.	.	.	.	.	.	.	.
=12	=12	=12	=12	=12	=12	=12	=12	=12	=12	=12	=12	=12	=12
8C/L	16r	16r	1r	.	.	1r	.	1r	.	1r	.	1r	1r
.	32r	32r	.	.	.	.	.	.	.	.	.	.	.
.	32a-/KLL	32a-/KLL	.	.	.	.	.	.	.	.	.	.	.
8r	16e-/	16e-/	.	.	.	.	.	.	.	.	.	.	.
.	16c/JJ	16d/JJ	.	.	.	.	.	.	.	.	.	.	.
8C/J	16r	16r	.	.	.	.	.	.	.	.	.	.	.
.	32r	32r	.	.	.	.	.	.	.	.	.	.	.
.	32a-/KLL	32a-/KLL	.	.	.	.	.	.	.	.	.	.	.
8r	16e-/	16e-/	.	.	.	.	.	.	.	.	.	.	.
.	16c/JJ	16d/JJ	.	.	.	.	.	.	.	.	.	.	.
!	!LO:LB:g=original	!	!	!	!	!	!	!	!	!	!	!	!
8BB-/L	16r	16r	.	.	.	.	.	.	.	.	.	.	.
.	32r	32r	.	.	.	.	.	.	.	.	.	.	.
.	32g/KLL	32g/KLL	.	.	.	.	.	.	.	.	.	.	.
8r	16e-/	16e-/	.	.	.	.	.	.	.	.	.	.	.
.	16d-X/JJ	16d-X/JJ	.	.	.	.	.	.	.	.	.	.	.
8BB-/J	16r	16r	.	.	.	.	.	.	.	.	.	.	.
.	32r	32r	.	.	.	.	.	.	.	.	.	.	.
.	32g/KLL	32g/KLL	.	.	.	.	.	.	.	.	.	.	.
8r	16e-/	16e-/	.	.	.	.	.	.	.	.	.	.	.
.	16d-X/JJ	16d-X/JJ	.	.	.	.	.	.	.	.	.	.	.
=13	=13	=13	=13	=13	=13	=13	=13	=13	=13	=13	=13	=13	=13
8E-\L	16r	16r	1r	.	.	1r	.	1r	.	1r	.	1r	1r
.	32r	32r	.	.	.	.	.	.	.	.	.	.	.
.	32dd-X/KLL	32dd-X/KLL	.	.	.	.	.	.	.	.	.	.	.
8r	16G/	16G/	.	.	.	.	.	.	.	.	.	.	.
.	16d-X/JJ	16d-X/JJ	.	.	.	.	.	.	.	.	.	.	.
8E-\J	16r	16r	.	.	.	.	.	.	.	.	.	.	.
!	!	!LO:LB:g=original	!	!	!	!	!	!	!	!	!	!	!
.	32r	32r	.	.	.	.	.	.	.	.	.	.	.
!	!	!LO:TX:t=P:problem=mixed beam	!	!	!	!	!	!	!	!	!	!	!
.	32dd-X/KLL	32dd-X/KLL	.	.	.	.	.	.	.	.	.	.	.
8r	16G/	16G/	.	.	.	.	.	.	.	.	.	.	.
.	16d-X/JJ	16d-X/JJ	.	.	.	.	.	.	.	.	.	.	.
8AA-/L	8c/L	8c/L	.	.	.	.	.	.	.	.	.	.	.
8r	8c/J	8c/J	.	.	.	.	.	.	.	.	.	.	.
8AA-/J	4c/	4c/	.	.	.	.	.	.	.	.	.	.	.
8r	.	.	.	.	.	.	.	.	.	.	.	.	.
!	!	!	!	!	!	!	!	!	!	!LO:LB:g=original	!	!	!
=14	=14	=14	=14	=14	=14	=14	=14	=14	=14	=14	=14	=14	=14
!	!	!	!	!	!LO:DY:t=pi	!	!	!	!	!	!	!	!
8A-\L	16r	16r	8c\	a-	p	1r	.	8cc\	a-	8ee-\	a-	1r	1r
.	32r	32r	.	.	.	.	.	.	.	.	.	.	.
.	32cc/KLL	32ee-\KLL	.	.	.	.	.	.	.	.	.	.	.
8r	16cc/	16ee-\	8c\	-gnus	.	.	.	8cc\	-gnus	8ee-\	-gnus	.	.
.	16a-/JJ	16a-\JJ	.	.	.	.	.	.	.	.	.	.	.
8A-\J	16r	16r	8c\	De-	.	.	.	8cc\	De-	8ee-\	De-	.	.
.	32r	32r	.	.	.	.	.	.	.	.	.	.	.
.	32cc/KLL	32ee-\KLL	.	.	.	.	.	.	.	.	.	.	.
8r	16cc/	16ee-\	16c\	-i	.	.	.	16cc\	-i	16ee-\	-i	.	.
.	16a-/JJ	16a-\JJ	16c\	qui	.	.	.	16cc\	qui	16ee-\	qui	.	.
8E-\L	16r	16r	8B-\	tol-	.	.	.	8b-\	tol-	8dd-X\	tol-	.	.
.	32r	32r	.	.	.	.	.	.	.	.	.	.	.
!	!LO:LB:g=original	!	!	!	!	!	!	!	!	!	!	!	!
.	32dd-X/KLL	32dd-X/KLL	.	.	.	.	.	.	.	.	.	.	.
8r	16g/	16g/	8B-\	-lis	.	.	.	8b-\	-lis	8dd-\	-lis	.	.
.	16B-/JJ	16B-/JJ	.	.	.	.	.	.	.	.	.	.	.
8E-\J	16r	16r	8r	.	.	.	.	8r	.	8r	.	.	.
.	32r	32r	.	.	.	.	.	.	.	.	.	.	.
.	32dd-/KLL	32dd-X/KLL	.	.	.	.	.	.	.	.	.	.	.
8r	16g/	16g/	16r	.	.	.	.	16r	.	16r	.	.	.
.	16B-/JJ	16B-/JJ	16B-\	pec-	.	.	.	16b-\	pec-	16dd-\	pec-	.	.
=15	=15	=15	=15	=15	=15	=15	=15	=15	=15	=15	=15	=15	=15
!	!	!	!	!	!	!	!	!	!	!LO:SIC:s=dd-	!	!	!
8E-\L	16r	16r	4.B-\	-ca-	.	1r	.	4.b-\	-ca-	4.dd\	-ca-	1r	1r
.	32r	32r	.	.	.	.	.	.	.	.	.	.	.
.	32dd-X/KLL	32dd-X/KLL	.	.	.	.	.	.	.	.	.	.	.
8r	16g/	16g/	.	.	.	.	.	.	.	.	.	.	.
.	16B-/JJ	16B-/JJ	.	.	.	.	.	.	.	.	.	.	.
8E-\J	4ryy	16r	.	.	.	.	.	.	.	.	.	.	.
.	.	32r	.	.	.	.	.	.	.	.	.	.	.
.	.	32dd-X/KLL	.	.	.	.	.	.	.	.	.	.	.
!LO:LB:g=original	!	!	!	!	!	!	!	!	!	!LO:SIC:s=dd-	!	!	!
8r	.	16g/	8B-\	-ta	.	.	.	8b-\	-ta	8dd\	-ta	.	.
.	.	16B-/JJ	.	.	.	.	.	.	.	.	.	.	.
!	!	!LO:LB:g=original	!	!	!	!	!	!	!	!	!	!	!
8A-\L	16r	16r	4A-\	mun-	.	.	.	4a-\	mun-	4cc\	mun-	.	.
.	32r	32r	.	.	.	.	.	.	.	.	.	.	.
.	32cc/KLL	32cc/KLL	.	.	.	.	.	.	.	.	.	.	.
8r	16e-/	16g/	.	.	.	.	.	.	.	.	.	.	.
.	16a-/JJ	16a-/JJ	.	.	.	.	.	.	.	.	.	.	.
8A-\J	16r	16r	4A-\	-di	.	.	.	4a-\	-di	4cc\	-di	.	.
.	32r	32r	.	.	.	.	.	.	.	.	.	.	.
.	32cc/KLL	32cc/KLL	.	.	.	.	.	.	.	.	.	.	.
8r	16e-/	16e-/	.	.	.	.	.	.	.	.	.	.	.
.	16a-/JJ	16a-/JJ	.	.	.	.	.	.	.	.	.	.	.
=16	=16	=16	=16	=16	=16	=16	=16	=16	=16	=16	=16	=16	=16
8A-\L	16r	16r	4A-\	Do-	.	4A-\	Do-	4a-\	Do-	4a-\	Do-	1r	1r
.	32r	32r	.	.	.	.	.	.	.	.	.	.	.
!	!	!LO:TX:t=P:problem=mixed beam	!	!	!	!	!	!	!	!	!	!	!
.	32cc/KLL	32cc/KLL	.	.	.	.	.	.	.	.	.	.	.
8r	16G/	16G/	.	.	.	.	.	.	.	.	.	.	.
.	16A-/JJ	16A-/JJ	.	.	.	.	.	.	.	.	.	.	.
8A-\J	16r	16r	4A-\	-na	.	4A-\	-na	4a-\	-na	4a-\	-na	.	.
.	32r	32r	.	.	.	.	.	.	.	.	.	.	.
!	!	!LO:TX:t=P:problem=mixed beam	!	!	!	!	!	!	!	!	!	!	!
.	32cc/KLL	32cc/KLL	.	.	.	.	.	.	.	.	.	.	.
8r	16G/	16G/	.	.	.	.	.	.	.	.	.	.	.
.	16A-/JJ	16A-/JJ	.	.	.	.	.	.	.	.	.	.	.
8E-\L	16r	16r	4B-\	E-	.	4B-\	E-	4b-\	E-	4b-\	E-	.	.
.	32r	32r	.	.	.	.	.	.	.	.	.	.	.
.	32b-/KLL	32g/KLL	.	.	.	.	.	.	.	.	.	.	.
8r	16dn/	16dn/	.	.	.	.	.	.	.	.	.	.	.
.	16e-/JJ	16e-/JJ	.	.	.	.	.	.	.	.	.	.	.
8E-\J	16r	16r	4B-\	-is	.	4B-\	-is	4b-\	-is	4b-\	-is	.	.
.	32r	32r	.	.	.	.	.	.	.	.	.	.	.
!	!LO:LB:g=original	!	!	!	!	!	!	!	!	!	!	!	!
.	32b-/KLL	32b-/KLL	.	.	.	.	.	.	.	.	.	.	.
8r	16d/	16d/	.	.	.	.	.	.	.	.	.	.	.
.	16e-/JJ	16e-/JJ	.	.	.	.	.	.	.	.	.	.	.
!	!	!	!	!	!	!	!	!LO:LB:g=original	!	!	!	!	!
=17	=17	=17	=17	=17	=17	=17	=17	=17	=17	=17	=17	=17	=17
8E-\L	16r	16r	4.B-\	Re-	.	4.B-\	Re-	4.b-\	Re-	4.b-\	Re-	1r	1r
.	32r	32r	.	.	.	.	.	.	.	.	.	.	.
.	32b-/KLL	32b-/KLL	.	.	.	.	.	.	.	.	.	.	.
8r	16d/	16d/	.	.	.	.	.	.	.	.	.	.	.
.	16e-/JJ	16e-/JJ	.	.	.	.	.	.	.	.	.	.	.
8E-\J	16r	16r	.	.	.	.	.	.	.	.	.	.	.
.	32r	32r	.	.	.	.	.	.	.	.	.	.	.
.	32b-/KLL	32b-/KLL	.	.	.	.	.	.	.	.	.	.	.
8r	16d/	16d/	8B-\	-qui-	.	8B-\	-qui-	8b-\	-qui-	8b-\	-qui-	.	.
.	16e-/JJ	16e-/JJ	.	.	.	.	.	.	.	.	.	.	.
!	!	!LO:LB:g=original	!	!	!	!	!	!	!	!	!	!	!
8A-\L	16r	16r	4c\	-em	.	4c\	-em	4cc\	-em	4cc\	-em	.	.
.	32r	32r	.	.	.	.	.	.	.	.	.	.	.
!	!	!LO:TX:t=P:problem=mixed beam	!	!	!	!	!	!	!	!	!	!	!
.	32cc/KLL	32cc/KLL	.	.	.	.	.	.	.	.	.	.	.
8r	16G/	16G/	.	.	.	.	.	.	.	.	.	.	.
.	16A-/JJ	16A-/JJ	.	.	.	.	.	.	.	.	.	.	.
8A-\J	16r	16r	4r	.	.	4r	.	4r	.	4r	.	.	.
.	32r	32r	.	.	.	.	.	.	.	.	.	.	.
!	!	!LO:TX:t=P:problem=mixed beam	!	!	!	!	!	!	!	!	!	!	!
.	32cc/KLL	32cc/KLL	.	.	.	.	.	.	.	.	.	.	.
8r	16G/	16G/	.	.	.	.	.	.	.	.	.	.	.
.	16A-/JJ	16A-/JJ	.	.	.	.	.	.	.	.	.	.	.
!	!	!	!LO:LB:g=original	!	!	!	!	!	!	!LO:LB:g=original	!	!	!
=18	=18	=18	=18	=18	=18	=18	=18	=18	=18	=18	=18	=18	=18
8AA-/L	16r	16r	4c\	Do-	.	4c\	Do-	4cc\	Do-	4cc\	Do-	1r	1r
.	32r	32r	.	.	.	.	.	.	.	.	.	.	.
!	!LO:TX:t=P:problem=mixed beam	!LO:TX:t=P:problem=mixed beam	!	!	!	!	!	!	!	!	!	!	!
.	32cc/KLL	32cc/KLL	.	.	.	.	.	.	.	.	.	.	.
8r	16G/	16G/	.	.	.	.	.	.	.	.	.	.	.
.	16A-/JJ	16A-/JJ	.	.	.	.	.	.	.	.	.	.	.
8AA-/J	16r	16r	4c\	-na	.	4c\	-na	4cc\	-na	4cc\	-na	.	.
.	32r	32r	.	.	.	.	.	.	.	.	.	.	.
!	!LO:TX:t=P:problem=mixed beam	!LO:TX:t=P:problem=mixed beam	!	!	!	!	!	!	!	!	!	!	!
.	32cc/KLL	32cc/KLL	.	.	.	.	.	.	.	.	.	.	.
8r	16G/	16G/	.	.	.	.	.	.	.	.	.	.	.
.	16A-/JJ	16A-/JJ	.	.	.	.	.	.	.	.	.	.	.
8E-/L	16r	16r	4d\	E-	.	4d-X\	E-	4dd-X\	E-	4dd-X\	E-	.	.
.	32r	32r	.	.	.	.	.	.	.	.	.	.	.
!	!LO:TX:t=P:problem=mixed beam	!	!	!	!	!	!	!	!	!	!	!	!
.	32dd-X/KLL	32dd-X/KLL	.	.	.	.	.	.	.	.	.	.	.
8r	16g/	16g/	.	.	.	.	.	.	.	.	.	.	.
.	16B-/JJ	16B-/JJ	.	.	.	.	.	.	.	.	.	.	.
8AA-/J	16r	16r	4B-\	-is	.	4c\	-is	4cc\	-is	4cc\	-is	.	.
.	32r	32r	.	.	.	.	.	.	.	.	.	.	.
!	!LO:LB:g=original	!	!	!	!	!	!	!	!	!	!	!	!
.	32cc/KLL	32cc/KLL	.	.	.	.	.	.	.	.	.	.	.
8r	16g/	16e-/	.	.	.	.	.	.	.	.	.	.	.
.	16A-/JJ	16A-/JJ	.	.	.	.	.	.	.	.	.	.	.
=19	=19	=19	=19	=19	=19	=19	=19	=19	=19	=19	=19	=19	=19
8E-\L	16r	16r	4.B-\	Re-	.	4.B-\	Re-	4.b-\	Re-	4cc\	Re-	1r	1r
.	32r	32r	.	.	.	.	.	.	.	.	.	.	.
.	32b-/KLL	32b-/KLL	.	.	.	.	.	.	.	.	.	.	.
8r	16d-X/	16d-X/	.	.	.	.	.	.	.	.	.	.	.
.	16G/JJ	16G/JJ	.	.	.	.	.	.	.	.	.	.	.
8E-\J	16r	16r	.	.	.	.	.	.	.	4b-\	-qui-	.	.
.	32r	32r	.	.	.	.	.	.	.	.	.	.	.
.	32b-/KLL	32b-/KLL	.	.	.	.	.	.	.	.	.	.	.
8r	16d-X/	16d-X/	8B-\	-qui-	.	8B-\	-qui-	8b-\	-qui-	.	.	.	.
.	16G/JJ	16G/JJ	.	.	.	.	.	.	.	.	.	.	.
!LO:LB:g=original	!	!LO:LB:g=original	!	!	!	!	!	!	!	!	!	!	!
8AA-/L	16r	16r	4c\	-em	.	4c\	-em	4cc\	-em	4cc\	-em	.	.
.	32r	32r	.	.	.	.	.	.	.	.	.	.	.
.	32cc/KLL	32cc/KLL	.	.	.	.	.	.	.	.	.	.	.
8r	16G/	16G/	.	.	.	.	.	.	.	.	.	.	.
.	16A-/JJ	16A-/JJ	.	.	.	.	.	.	.	.	.	.	.
8AA-/J	16r	16r	4r	.	.	4r	.	4r	.	4r	.	.	.
.	32r	32r	.	.	.	.	.	.	.	.	.	.	.
.	32cc/KLL	32cc/KLL	.	.	.	.	.	.	.	.	.	.	.
8r	16G/	16G/	.	.	.	.	.	.	.	.	.	.	.
.	16A-/JJ	16A-/JJ	.	.	.	.	.	.	.	.	.	.	.
!	!	!	!	!	!	!LO:LB:g=original	!	!	!	!	!	!	!
=20	=20	=20	=20	=20	=20	=20	=20	=20	=20	=20	=20	=20	=20
!	!	!	!	!	!	!LO:TX:a:t=5	!	!LO:TX:a:t=3	!	!	!	!	!
8AAn/L	16r	16r	1r	.	.	1r	.	1r	.	1r	.	1r	1r
.	32r	32r	.	.	.	.	.	.	.	.	.	.	.
.	32cc/KLL	32cc/KLL	.	.	.	.	.	.	.	.	.	.	.
8r	16f/	16f/	.	.	.	.	.	.	.	.	.	.	.
.	16e-/JJ	16e-/JJ	.	.	.	.	.	.	.	.	.	.	.
8AA/J	16r	16r	.	.	.	.	.	.	.	.	.	.	.
.	32r	32r	.	.	.	.	.	.	.	.	.	.	.
.	32cc/KLL	32cc/KLL	.	.	.	.	.	.	.	.	.	.	.
8r	16f/	16f/	.	.	.	.	.	.	.	.	.	.	.
.	16e-/JJ	16e-/JJ	.	.	.	.	.	.	.	.	.	.	.
8AA/L	16r	16r	.	.	.	.	.	.	.	.	.	.	.
.	32r	32r	.	.	.	.	.	.	.	.	.	.	.
.	32cc/KLL	32cc/KLL	.	.	.	.	.	.	.	.	.	.	.
8r	16f/	16f/	.	.	.	.	.	.	.	.	.	.	.
.	16e-/JJ	16e-/JJ	.	.	.	.	.	.	.	.	.	.	.
8AA/J	16r	16r	.	.	.	.	.	.	.	.	.	.	.
.	32r	32r	.	.	.	.	.	.	.	.	.	.	.
!	!LO:LB:g=original	!	!	!	!	!	!	!	!	!	!	!	!
.	32cc/KLL	32cc/KLL	.	.	.	.	.	.	.	.	.	.	.
8r	16f/	16e-/	.	.	.	.	.	.	.	.	.	.	.
.	16e-/JJ	16d/JJ	.	.	.	.	.	.	.	.	.	.	.
=21	=21	=21	=21	=21	=21	=21	=21	=21	=21	=21	=21	=21	=21
8BB-/L	16r	16r	1r	.	.	1r	.	1r	.	1r	.	1r	1r
.	32r	32r	.	.	.	.	.	.	.	.	.	.	.
.	32f/KLL	32f/KLL	.	.	.	.	.	.	.	.	.	.	.
8r	16c/	16c/	.	.	.	.	.	.	.	.	.	.	.
.	16A-/JJ	16A-/JJ	.	.	.	.	.	.	.	.	.	.	.
8BB-/J	16r	16r	.	.	.	.	.	.	.	.	.	.	.
.	32r	32r	.	.	.	.	.	.	.	.	.	.	.
.	32f/KLL	32f/KLL	.	.	.	.	.	.	.	.	.	.	.
8r	16c/	16c/	.	.	.	.	.	.	.	.	.	.	.
.	16A-/JJ	16A-/JJ	.	.	.	.	.	.	.	.	.	.	.
8GG/L	16r	16r	.	.	.	.	.	.	.	.	.	.	.
.	32r	32r	.	.	.	.	.	.	.	.	.	.	.
.	32b-/KLL	32b-/KLL	.	.	.	.	.	.	.	.	.	.	.
8r	16d/	16d/	.	.	.	.	.	.	.	.	.	.	.
.	16e-/JJ	16e-/JJ	.	.	.	.	.	.	.	.	.	.	.
8GG/J	16r	16r	.	.	.	.	.	.	.	.	.	.	.
.	32r	32r	.	.	.	.	.	.	.	.	.	.	.
.	32b-/KLL	32b-/KLL	.	.	.	.	.	.	.	.	.	.	.
8r	16d/	16d/	.	.	.	.	.	.	.	.	.	.	.
.	16e-/JJ	16e-/JJ	.	.	.	.	.	.	.	.	.	.	.
!	!	!LO:LB:g=original	!	!	!	!	!	!	!	!	!	!	!
=22	=22	=22	=22	=22	=22	=22	=22	=22	=22	=22	=22	=22	=22
8AA-/L	16r	16r	1r	.	.	1r	.	1r	.	1r	.	1r	1r
.	32r	32r	.	.	.	.	.	.	.	.	.	.	.
.	32cc/KLL	32cc/KLL	.	.	.	.	.	.	.	.	.	.	.
8r	16en/	16en/	.	.	.	.	.	.	.	.	.	.	.
.	16f/JJ	16f/JJ	.	.	.	.	.	.	.	.	.	.	.
8AA-/J	16r	16r	.	.	.	.	.	.	.	.	.	.	.
.	32r	32r	.	.	.	.	.	.	.	.	.	.	.
.	32cc/KLL	32cc/KLL	.	.	.	.	.	.	.	.	.	.	.
8r	16e/	16e/	.	.	.	.	.	.	.	.	.	.	.
.	16f/JJ	16f/JJ	.	.	.	.	.	.	.	.	.	.	.
8AA-/L	16r	16r	.	.	.	.	.	.	.	.	.	.	.
.	32r	32r	.	.	.	.	.	.	.	.	.	.	.
.	32b-/KLL	32a-/KLL	.	.	.	.	.	.	.	.	.	.	.
8r	16g/	16f/	.	.	.	.	.	.	.	.	.	.	.
.	16e-yX/JJ	16e/JJ	.	.	.	.	.	.	.	.	.	.	.
!	!LO:LB:g=original	!	!	!	!	!	!	!	!	!	!	!	!
8BB-/J	16r	16r	.	.	.	.	.	.	.	.	.	.	.
.	32r	32r	.	.	.	.	.	.	.	.	.	.	.
.	32b-/KLL	32a-/KLL	.	.	.	.	.	.	.	.	.	.	.
8r	16g/	16f/	.	.	.	.	.	.	.	.	.	.	.
.	16e-/JJ	16d/JJ	.	.	.	.	.	.	.	.	.	.	.
!	!	!	!	!	!	!	!	!LO:LB:g=original	!	!	!	!	!
=23	=23	=23	=23	=23	=23	=23	=23	=23	=23	=23	=23	=23	=23
!LO:TX:t=P:problem=mixed beam	!	!	!	!	!	!	!	!	!	!	!	!	!
8E-/L	8e-/L	8e-/L	2r	.	.	1r	.	2r	.	2r	.	1r	1r
8EE-/J	8e-/J	8e-/J	.	.	.	.	.	.	.	.	.	.	.
4EE-/	4e-/	4e-/	.	.	.	.	.	.	.	.	.	.	.
!LO:LB:g=original	!	!	!	!	!	!	!	!	!	!	!	!	!
8E-\L	16r	16r	8B-\	a-	.	.	.	8b-\	a-	8gg\	a-	.	.
.	32r	32r	.	.	.	.	.	.	.	.	.	.	.
.	32g/KLL	32b-/KLL	.	.	.	.	.	.	.	.	.	.	.
!	!	!	!	!	!	!	!	!	!	!LO:N:vis=16	!	!	!
8r	16g/	16d/	8B-\	-gnus	.	.	.	8b-\	-gnus	8gg\	-gnus	.	.
.	16e-/JJ	16e-/JJ	.	.	.	.	.	.	.	.	.	.	.
!	!	!	!	!	!	!	!	!	!	!LO:N:vis=16	!	!	!
8E-\J	16r	16r	8B-\	De-	.	.	.	8b-\	De-	8gg\	De-	.	.
.	32r	32r	.	.	.	.	.	.	.	.	.	.	.
.	32g/KLL	32b-/KLL	.	.	.	.	.	.	.	.	.	.	.
8r	16g/	16b-/	16B-\	-i	.	.	.	16b-\	-i	16gg\	-i	.	.
.	16e-/JJ	16e-/JJ	16B-\	qui	.	.	.	16b-\	qui	16gg\	qui	.	.
=24	=24	=24	=24	=24	=24	=24	=24	=24	=24	=24	=24	=24	=24
8BB-/L	16r	16r	8A-\	tol-	.	1r	.	8a-\	tol-	8ff\	tol-	1r	1r
.	32r	32r	.	.	.	.	.	.	.	.	.	.	.
.	32f/KLL	32a-/KLL	.	.	.	.	.	.	.	.	.	.	.
8r	16B-/	16d/	8A-\	-lis	.	.	.	8a-\	-lis	8ff\	-lis	.	.
.	16d/JJ	16f/JJ	.	.	.	.	.	.	.	.	.	.	.
8BB-/J	16r	16r	8r	.	.	.	.	8r	.	8r	.	.	.
.	32r	32r	.	.	.	.	.	.	.	.	.	.	.
.	32f/KLL	32a-/KLL	.	.	.	.	.	.	.	.	.	.	.
8r	16B-/	16d/	16r	.	.	.	.	16r	.	16r	.	.	.
!	!	!	!	!	!	!	!	!	!	!LO:LB:g=original	!	!	!
.	16d/JJ	16f/JJ	16A-\	pec-	.	.	.	16a-\	pec-	16ff\	pec-	.	.
8BB-/L	16r	16r	4.A-\	-ca-	.	.	.	4.a-\	-ca-	4.ff\	-ca-	.	.
.	32r	32r	.	.	.	.	.	.	.	.	.	.	.
.	32f/KLL	32a-/KLL	.	.	.	.	.	.	.	.	.	.	.
8r	16B-/	16d/	.	.	.	.	.	.	.	.	.	.	.
.	16d/JJ	16f/JJ	.	.	.	.	.	.	.	.	.	.	.
8BB-/J	16r	16r	.	.	.	.	.	.	.	.	.	.	.
.	32r	32r	.	.	.	.	.	.	.	.	.	.	.
!	!	!LO:LB:g=original	!	!	!	!	!	!	!	!	!	!	!
.	32f/KLL	32a-/KLL	.	.	.	.	.	.	.	.	.	.	.
8r	16B-/	16d/	8A-\	-ta	.	.	.	8a-\	-ta	8ff\	-ta	.	.
.	16d/JJ	16f/JJ	.	.	.	.	.	.	.	.	.	.	.
!	!LO:LB:g=original	!	!LO:LB:g=original	!	!	!	!	!	!	!	!	!	!
=25	=25	=25	=25	=25	=25	=25	=25	=25	=25	=25	=25	=25	=25
8E-\L	16r	16r	4G\	mun-	.	2r	.	4g\	mun-	4ee-\	mun-	2r	2r
.	32r	32r	.	.	.	.	.	.	.	.	.	.	.
.	32g/KLL	32g/KLL	.	.	.	.	.	.	.	.	.	.	.
8r	16d/	16B-/	.	.	.	.	.	.	.	.	.	.	.
.	16e-/JJ	16e-/JJ	.	.	.	.	.	.	.	.	.	.	.
8E-\J	16r	16r	4G\	-di	.	.	.	4g\	-di	4ee-\	-di	.	.
.	32r	32r	.	.	.	.	.	.	.	.	.	.	.
.	32g/KLL	32g/KLL	.	.	.	.	.	.	.	.	.	.	.
8r	16B-/	16B-/	.	.	.	.	.	.	.	.	.	.	.
.	16e-/JJ	16e-/JJ	.	.	.	.	.	.	.	.	.	.	.
8E-\L	16r	16r	4E-\	Do-	.	4E-/	Do-	4e-\	Do-	4e-/	Do-	8E-/L	8E-/L
.	32r	32r	.	.	.	.	.	.	.	.	.	.	.
.	32g/KLL	32g/KLL	.	.	.	.	.	.	.	.	.	.	.
8r	16d/	16d/	.	.	.	.	.	.	.	.	.	8r	8r
.	16e-/JJ	16e-/JJ	.	.	.	.	.	.	.	.	.	.	.
8E-\J	16r	16r	4E-\	-na	.	4E-/	-na	4e-\	-na	4e-/	-na	8E-/J	8E-/J
.	32r	32r	.	.	.	.	.	.	.	.	.	.	.
.	32g/KLL	32g/KLL	.	.	.	.	.	.	.	.	.	.	.
8r	16d/	16d/	.	.	.	.	.	.	.	.	.	8r	8r
.	16e-/JJ	16e-/JJ	.	.	.	.	.	.	.	.	.	.	.
!	!	!	!	!	!	!	!	!LO:LB:g=original	!	!	!	!	!
=26	=26	=26	=26	=26	=26	=26	=26	=26	=26	=26	=26	=26	=26
8BB-/L	16r	16r	4F\	E-	.	4F/	E-	4f\	E-	4f/	E-	8BB-/L	8BB-/L
.	32r	32r	.	.	.	.	.	.	.	.	.	.	.
.	32f/KLL	32f/KLL	.	.	.	.	.	.	.	.	.	.	.
8r	16An/	16An/	.	.	.	.	.	.	.	.	.	8r	8r
.	16B-/JJ	16B-/JJ	.	.	.	.	.	.	.	.	.	.	.
8BB-/J	16r	16r	4F\	-is	.	4F/	-is	4f\	-is	4f/	-is	8BB-/J	8BB-/J
.	32r	32r	.	.	.	.	.	.	.	.	.	.	.
.	32f/KLL	32f/KLL	.	.	.	.	.	.	.	.	.	.	.
8r	16A/	16A/	.	.	.	.	.	.	.	.	.	8r	8r
.	16B-/JJ	16B-/JJ	.	.	.	.	.	.	.	.	.	.	.
8E-\L	16r	16r	4.G\	Re-	.	4.G/	Re-	4.g\	Re-	4.g/	Re-	8E-/L	8E-/L
.	32r	32r	.	.	.	.	.	.	.	.	.	.	.
.	32g/KLL	32g/KLL	.	.	.	.	.	.	.	.	.	.	.
8r	16d/	16d/	.	.	.	.	.	.	.	.	.	8r	8r
.	16e-/JJ	16e-/JJ	.	.	.	.	.	.	.	.	.	.	.
8E-\J	16r	16r	.	.	.	.	.	.	.	.	.	8E-/J	8E-/J
.	32r	32r	.	.	.	.	.	.	.	.	.	.	.
.	32g/KLL	32g/KLL	.	.	.	.	.	.	.	.	.	.	.
8r	16d/	16d/	8G\	-qui-	.	8G/	-qui-	8g\	-qui-	8g/	-qui-	8r	8r
.	16e-/JJ	16e-/JJ	.	.	.	.	.	.	.	.	.	.	.
!	!LO:LB:g=original	!	!	!	!	!	!	!	!	!	!	!	!
=27	=27	=27	=27	=27	=27	=27	=27	=27	=27	=27	=27	=27	=27
8E-\L	16r	16r	4G\	-em	.	4G/	-em	4g\	-em	4g/	-em	8E-/L	8E-/L
.	32r	32r	.	.	.	.	.	.	.	.	.	.	.
.	32b-/KLL	32b-/KLL	.	.	.	.	.	.	.	.	.	.	.
8r	16d/	16d/	.	.	.	.	.	.	.	.	.	8r	8r
.	16e-/JJ	16e-/JJ	.	.	.	.	.	.	.	.	.	.	.
8E-\J	16r	16r	4r	.	.	4r	.	4r	.	4r	.	8E-/J	8E-/J
.	32r	32r	.	.	.	.	.	.	.	.	.	.	.
!	!	!LO:LB:g=original	!	!	!	!	!	!	!	!	!	!	!
.	32b-/KLL	32b-/KLL	.	.	.	.	.	.	.	.	.	.	.
!LO:LB:g=original	!	!	!	!	!	!	!	!	!	!	!	!	!
8r	16d/	16d/	.	.	.	.	.	.	.	.	.	8r	8r
.	16e-/JJ	16e-/JJ	.	.	.	.	.	.	.	.	.	.	.
8E-\L	16r	16r	8.G\	Re-	.	8G/	Re-	8.g\	Re-	8g/	Re-	8E-/L	8E-/L
.	32r	32r	.	.	.	.	.	.	.	.	.	.	.
.	32b-/KLL	32b-/KLL	.	.	.	.	.	.	.	.	.	.	.
8r	16d/	16d/	.	.	.	8G/	-qui-	.	.	8g/	-qui-	8r	8r
.	16e-/JJ	16e-/JJ	16G\	-qui-	.	.	.	16g\	-qui-	.	.	.	.
8E-\J	16r	16r	4G\	-em	.	4G/	-em	4g\	-em	4g/	-em	8E-/J	8E-/J
.	32r	32r	.	.	.	.	.	.	.	.	.	.	.
.	32g/KLL	32b-/KLL	.	.	.	.	.	.	.	.	.	.	.
8r	16d/	16d/	.	.	.	.	.	.	.	.	.	8r	8r
.	16e-/JJ	16e-/JJ	.	.	.	.	.	.	.	.	.	.	.
!	!	!	!	!	!	!	!	!	!	!	!	!LO:LB:g=original	!LO:LB:g=original
=28	=28	=28	=28	=28	=28	=28	=28	=28	=28	=28	=28	=28	=28
*	*	*	*2\right	*	*	*	*	*2\right	*	*2\right	*	*	*
8BB-/L	16r	16r	2A-\	Sem-	.	2A-/	Sem-	2a-\	Sem-	2a-\	Sem-	8BB-/L	8BB-/L
.	32r	32r	.	.	.	.	.	.	.	.	.	.	.
.	32a-/KLL	32a-/KLL	.	.	.	.	.	.	.	.	.	.	.
8r	16d/	16d/	.	.	.	.	.	.	.	.	.	8r	8r
.	16e-/JJ	16f/JJ	.	.	.	.	.	.	.	.	.	.	.
8BB-/J	16r	16r	.	.	.	.	.	.	.	.	.	8BB-/J	8BB-/J
.	32r	32r	.	.	.	.	.	.	.	.	.	.	.
.	32a-/KLL	32a-/KLL	.	.	.	.	.	.	.	.	.	.	.
8r	16d/	16d/	.	.	.	.	.	.	.	.	.	8r	8r
.	16e-/JJ	16f/JJ	.	.	.	.	.	.	.	.	.	.	.
8E-/L	16r	16r	2G\	-pi-	.	2G/	-pi-	2g\	-pi-	2g\	-pi-	8E-/L	8E-/L
.	32r	32r	.	.	.	.	.	.	.	.	.	.	.
.	32a-/KLL	32a-/KLL	.	.	.	.	.	.	.	.	.	.	.
8r	16d/	16d/	.	.	.	.	.	.	.	.	.	8r	8r
.	16e-/JJ	16f/JJ	.	.	.	.	.	.	.	.	.	.	.
8BB-/J	16r	16r	.	.	.	.	.	.	.	.	.	8E-/J	8E-/J
.	32r	32r	.	.	.	.	.	.	.	.	.	.	.
.	32a-/KLL	32a-/KLL	.	.	.	.	.	.	.	.	.	.	.
8r	16d/	16d/	.	.	.	.	.	.	.	.	.	8r	8r
.	16e-/JJ	16e-/JJ	.	.	.	.	.	.	.	.	.	.	.
!	!LO:LB:g=original	!	!	!	!	!	!	!	!	!	!	!	!
=29	=29	=29	=29	=29	=29	=29	=29	=29	=29	=29	=29	=29	=29
8BB-/L	16r	16r	2F\	-ter-	.	2F/	-ter-	2f\	-ter-	2f/	-ter-	8BB-/L	8BB-/L
.	32r	32r	.	.	.	.	.	.	.	.	.	.	.
.	32f/KLL	32f/KLL	.	.	.	.	.	.	.	.	.	.	.
8r	16An/	16An/	.	.	.	.	.	.	.	.	.	8r	8r
.	16B-/JJ	16B-/JJ	.	.	.	.	.	.	.	.	.	.	.
8BB-/J	16r	16r	.	.	.	.	.	.	.	.	.	8BB-/J	8BB-/J
.	32r	32r	.	.	.	.	.	.	.	.	.	.	.
.	32f/KLL	32f/KLL	.	.	.	.	.	.	.	.	.	.	.
8r	16A/	16A/	.	.	.	.	.	.	.	.	.	8r	8r
.	16B-/JJ	16B-/JJ	.	.	.	.	.	.	.	.	.	.	.
8E-\L	16r	16r	2G\	-nam	.	2G/	-nam	2g\	-nam	2g/	-nam	8E-/L	8E-/L
.	32r	32r	.	.	.	.	.	.	.	.	.	.	.
.	32g/KLL	32g/KLL	.	.	.	.	.	.	.	.	.	.	.
8r	16d/	16d/	.	.	.	.	.	.	.	.	.	8r	8r
.	16e-/JJ	16e-/JJ	.	.	.	.	.	.	.	.	.	.	.
8E-\J	16r	16r	.	.	.	.	.	.	.	.	.	8E-/J	8E-/J
.	32r	32r	.	.	.	.	.	.	.	.	.	.	.
.	32g/KLL	32g/KLL	.	.	.	.	.	.	.	.	.	.	.
8r	16d/	16d/	.	.	.	.	.	.	.	.	.	8r	8r
.	16e-/JJ	16e-/JJ	.	.	.	.	.	.	.	.	.	.	.
=30	=30	=30	=30	=30	=30	=30	=30	=30	=30	=30	=30	=30	=30
8E-\L	16r	16r	1r	.	.	1r	.	1r	.	1r	.	8BB-/L	8BB-/L
.	32r	32r	.	.	.	.	.	.	.	.	.	.	.
.	32g-X/KLL	32g/KLL	.	.	.	.	.	.	.	.	.	.	.
8r	16d-X/	16d-X/	.	.	.	.	.	.	.	.	.	8r	8r
.	16e-/JJ	16e-/JJ	.	.	.	.	.	.	.	.	.	.	.
8E-\J	16r	16r	.	.	.	.	.	.	.	.	.	8E-/J	8E-/J
.	32r	32r	.	.	.	.	.	.	.	.	.	.	.
.	32g-/KLL	32g-X/KLL	.	.	.	.	.	.	.	.	.	.	.
8r	16d-X/	16d-X/	.	.	.	.	.	.	.	.	.	8r	8r
.	16e-/JJ	16e-/JJ	.	.	.	.	.	.	.	.	.	.	.
!	!	!LO:LB:g=original	!	!	!	!	!	!	!	!	!	!	!
8BB-/L	16r	16r	.	.	.	.	.	.	.	.	.	8BB-/L	8BB-/L
.	32r	32r	.	.	.	.	.	.	.	.	.	.	.
.	32f/KLL	32f/KLL	.	.	.	.	.	.	.	.	.	.	.
8r	16c/	16c/	.	.	.	.	.	.	.	.	.	8r	8r
.	16A-X/JJ	16A-X/JJ	.	.	.	.	.	.	.	.	.	.	.
!	!LO:LB:g=original	!	!	!	!	!	!	!	!	!	!	!	!
8BB-/J	16r	16r	.	.	.	.	.	.	.	.	.	8BB-/J	8BB-/J
.	32r	32r	.	.	.	.	.	.	.	.	.	.	.
.	32f/KLL	32f/KLL	.	.	.	.	.	.	.	.	.	.	.
8r	16B-/	16c/	.	.	.	.	.	.	.	.	.	8r	8r
.	16A-/JJ	16A-/JJ	.	.	.	.	.	.	.	.	.	.	.
=31	=31	=31	=31	=31	=31	=31	=31	=31	=31	=31	=31	=31	=31
8E-/L	8G/L	8G/L 8e-	1r	.	.	1r	.	1r	.	1r	.	8E-/L	8E-/L
8EE-/J	8G/J	8G/J 8e-	.	.	.	.	.	.	.	.	.	8E-/J	8r
4EE-/	4G/	4G/ 4e-	.	.	.	.	.	.	.	.	.	4E-/	8E-/J
.	.	.	.	.	.	.	.	.	.	.	.	.	8r
4r	2r	2r	.	.	.	.	.	.	.	.	.	2r	2r
4r	.	.	.	.	.	.	.	.	.	.	.	.	.
==	==	==	==	==	==	==	==	==	==	==	==	==	==
*-	*-	*-	*-	*-	*-	*-	*-	*-	*-	*-	*-	*-	*-
!!!system-decoration: [(s1,s2)][(s3,s4,s5,s6)][(s7,s8)][(s9)]
!!!ENC: Marcin Jachim
!!!END: 2021-02-01
!!!ENC: Natalia Wrzos
!!!END: 2022-01-26
